src/assets/img/favourites.svg

<svg
  width="19"
  height="18"
  viewBox="0 0 19 18"
  fill="none"
  xmlns="http://www.w3.org/2000/svg">
  <path
  opacity="0.4"
  fill-rule="evenodd"
  clip-rule="evenodd"
  d="M15.5882 16.1776C15.8046 17.4345 14.7118 18.2242 13.5793 17.6312C13.5793 17.6312 9.32641 15.4276 9.36773 15.4059L5.11778 17.6312C3.98444 18.2246 2.89263 17.4335 3.10892 16.1776C3.10892 16.1776 3.89901 11.4682 3.93244 11.5007L0.494159 8.16277C-0.422732 7.27264 -0.00467551 5.99401 1.26148 5.81077C1.26148 5.81077 6.00269 5.10388 5.98203 5.14558L8.107 0.857337C8.67367 -0.286213 10.0239 -0.285345 10.5901 0.857337C10.5901 0.857337 12.7302 5.1298 12.684 5.12312L17.4356 5.81077C18.7027 5.99415 19.1191 7.27331 18.2029 8.16277C18.2029 8.16277 14.7844 11.5102 14.7765 11.4644L15.5882 16.1776ZM5.09647 15.5573L8.50515 13.7718C9.0044 13.5104 9.6939 13.511 10.1919 13.7718L13.609 15.561L12.9495 11.7764C12.8542 11.2228 13.0679 10.5699 13.4708 10.1787L16.2242 7.50565L12.4175 6.95008C11.8593 6.8693 11.3019 6.46516 11.0528 5.96262L9.34969 2.52567L7.64427 5.96262C7.39464 6.46637 6.83646 6.8695 6.27962 6.95008L2.46854 7.50163L5.22632 10.1787C5.63022 10.5708 5.84269 11.2241 5.74757 11.7764L5.09647 15.5573Z"
  fill="white"/>
</svg>

<svg
  width="19"
  height="18"
  fill="none"
  xmlns="http://www.w3.org/2000/svg">
  <path
  opacity=".4"
  fill-rule="evenodd"
  clip-rule="evenodd"
  d="M15.588 16.178c.217 1.256-.876 2.046-2.009 1.453 0 0-4.253-2.203-4.211-2.225l-4.25 2.225c-1.134.594-2.225-.198-2.01-1.453 0 0 .791-4.71.824-4.677L.494 8.163c-.917-.89-.499-2.169.767-2.352 0 0 4.742-.707 4.721-.665L8.107.857c.567-1.143 1.917-1.142 2.483 0 0 0 2.14 4.273 2.094 4.266l4.752.688c1.267.183 1.683 1.462.767 2.352 0 0-3.419 3.347-3.426 3.301l.811 4.714Zm-10.492-.62 3.41-1.786c.498-.262 1.188-.261 1.686 0l3.417 1.789-.66-3.785a1.895 1.895 0 0 1 .522-1.597l2.753-2.673-3.806-.556a1.907 1.907 0 0 1-1.365-.987L9.35 2.526 7.644 5.963c-.25.503-.808.907-1.364.987l-3.811.552 2.757 2.677c.404.392.617 1.045.522 1.597l-.652 3.781Z" fill="#fff"/>
</svg>
